X:44
T:B.F. Hillikers Q.S. 
C:To B. F. Hilliker Los Angeles Cal. Drummer Co.A. Son Wm. Live Eagle Read by A.F. Hopkins
B:American Veteran Fifer, #44
M:2/4
L:1/16
Q:1/8=180
K:D
|: AB|Acef efge|fadc d2cd|e2fa efaf|gage dBFG|BABc defg|fd2c d2cd|edfd efdB|A2z2z2 :|
|: cd|e2a2 a2>f2|gedB G2>A2|Bdga gfag|fd2c d2cd|e2a2 abaf|gedB G2>A2|Be2f edBG|A2z2z2 :|
